src/assets/icons/medium.svg

<svg height="44" viewBox="0 0 44 44" width="44" xmlns="http://www.w3.org/2000/svg" xmlns:xlink="http://www.w3.org/1999/xlink"><linearGradient id="a" x1="100%" x2="0%" y1="0%" y2="100%"><stop offset="0" stop-color="#fa7d78"/><stop offset="1" stop-color="#6114cc"/></linearGradient><g fill="none" fill-rule="evenodd"><circle cx="22" cy="22" fill="url(#a)" r="22"/><path d="m2.84593838 3.88685595c.02981816-.29461341-.08253075-.585806-.30252101-.78409198l-2.24089636-2.69951667v-.4032473h6.95798319l5.3781513 11.7949836 4.7282914-11.7949836h6.6330531v.4032473l-1.9159664 1.8370155c-.1651773.12590777-.2471137.33284612-.2128851.53766307v13.49758343c-.0342286.2048169.0477078.4117552.2128851.537663l1.8711485 1.8370155v.4032473h-9.4117647v-.4032473l1.9383754-1.8818207c.1904761-.1904224.1904761-.2464289.1904761-.537663v-10.91007994l-5.3893557 13.68800574h-.7282913l-6.27450986-13.68800574v9.17387614c-.05231458.3856955.07578168.7740066.34733893 1.0529236l2.52100841 3.0579587v.4032473h-7.14845938v-.4032473l2.5210084-3.0579587c.26958008-.2793794.39020695-.6702663.32492998-1.0529236z" fill="#fff" fill-rule="nonzero" transform="translate(10 12)"/></g></svg>

<?xml version="1.0" encoding="UTF-8"?>
<svg width="44px" height="44px" viewBox="0 0 44 44" version="1.1" xmlns="http://www.w3.org/2000/svg" xmlns:xlink="http://www.w3.org/1999/xlink">
    <!-- Generator: Sketch 50 (54983) - http://www.bohemiancoding.com/sketch -->
    <title>meduim</title>
    <desc>Created with Sketch.</desc>
    <defs>
        <linearGradient x1="100%" y1="0%" x2="0%" y2="100%" id="linearGradient-1">
            <stop stop-color="#FA7D78" offset="0%"></stop>
            <stop stop-color="#6114CC" offset="100%"></stop>
        </linearGradient>
    </defs>
    <g id="icons" stroke="none" stroke-width="1" fill="none" fill-rule="evenodd">
        <g id="Artboard-3" transform="translate(-10.000000, -8.000000)">
            <g id="meduim" transform="translate(10.000000, 8.000000)">
                <circle id="Oval-2" fill="url(#linearGradient-1)" cx="22" cy="22" r="22"></circle>
                <g id="Monogram" transform="translate(10.000000, 12.000000)" fill="#FFFFFF" fill-rule="nonzero">
                    <path d="M2.84593838,3.88685595 C2.87575654,3.59224254 2.76340763,3.30104995 2.54341737,3.10276397 L0.302521008,0.403247304 L0.302521008,0 L7.2605042,0 L12.6386555,11.7949836 L17.3669469,0 L24,0 L24,0.403247304 L22.0840336,2.2402628 C21.9188563,2.36617057 21.8369199,2.57310892 21.8711485,2.77792587 L21.8711485,16.2755093 C21.8369199,16.4803262 21.9188563,16.6872645 22.0840336,16.8131723 L23.9551821,18.6501878 L23.9551821,19.0534351 L14.5434174,19.0534351 L14.5434174,18.6501878 L16.4817928,16.7683671 C16.6722689,16.5779447 16.6722689,16.5219382 16.6722689,16.2307041 L16.6722689,5.32062416 L11.2829132,19.0086299 L10.5546219,19.0086299 L4.28011204,5.32062416 L4.28011204,14.4945003 C4.22779746,14.8801958 4.35589372,15.2685069 4.62745097,15.5474239 L7.14845938,18.6053826 L7.14845938,19.0086299 L0,19.0086299 L0,18.6053826 L2.5210084,15.5474239 C2.79058848,15.2680445 2.91121535,14.8771576 2.84593838,14.4945003 L2.84593838,3.88685595 Z" id="Shape"></path>
                </g>
            </g>
        </g>
    </g>
</svg>
